src/assets/svg/icons/fa/nuevos/classic/light/face-relieved classic light.svg

<svg xmlns="http://www.w3.org/2000/svg" viewBox="0 0 512 512"><!--! Font Awesome Pro 6.4.0 by @fontawesome - https://fontawesome.com License - https://fontawesome.com/license (Commercial License) Copyright 2023 Fonticons, Inc. --><path d="M480 256A224 224 0 1 0 32 256a224 224 0 1 0 448 0zM0 256a256 256 0 1 1 512 0A256 256 0 1 1 0 256zm187.3 92.7c13 13 35.8 27.3 68.7 27.3s55.6-14.3 68.7-27.3c6.2-6.2 16.4-6.2 22.6 0s6.2 16.4 0 22.6C329.4 389.2 298.9 408 256 408s-73.4-18.8-91.3-36.7c-6.2-6.2-6.2-16.4 0-22.6s16.4-6.2 22.6 0zM387.2 238.4c5.3-7.1 15.3-8.5 22.4-3.2s8.5 15.3 3.2 22.4c-30.4 40.5-91.2 40.5-121.6 0c-5.3-7.1-3.9-17.1 3.2-22.4s17.1-3.9 22.4 3.2c17.6 23.5 52.8 23.5 70.4 0zm-262.4 0c17.6 23.5 52.8 23.5 70.4 0c5.3-7.1 15.3-8.5 22.4-3.2s8.5 15.3 3.2 22.4c-30.4 40.5-91.2 40.5-121.6 0c-5.3-7.1-3.9-17.1 3.2-22.4s17.1-3.9 22.4 3.2zm82.4-131.5c2.8 8.4-1.7 17.4-10.1 20.2l-6.3 2.1c-23.6 7.9-44 23.4-57.8 44.1l-7.6 11.5c-4.9 7.4-14.8 9.3-22.2 4.4s-9.3-14.8-4.4-22.2l7.6-11.5c17.8-26.6 43.9-46.6 74.3-56.7l6.3-2.1c8.4-2.8 17.4 1.7 20.2 10.1zm107.8 20.2c-8.4-2.8-12.9-11.9-10.1-20.2s11.9-12.9 20.2-10.1l6.3 2.1c30.4 10.1 56.5 30.1 74.3 56.7l7.6 11.5c4.9 7.4 2.9 17.3-4.4 22.2s-17.3 2.9-22.2-4.4L379 173.4c-13.8-20.7-34.1-36.3-57.8-44.1l-6.3-2.1z"/></svg>

<svg xmlns="http://www.w3.org/2000/svg" viewBox="0 0 512 512"><path d="M256 376C288.9 376 311.6 361.7 324.7 348.7C330.9 342.4 341.1 342.4 347.3 348.7C353.6 354.9 353.6 365.1 347.3 371.3C329.4 389.2 298.9 408 256 408C213.1 408 182.6 389.2 164.7 371.3C158.4 365.1 158.4 354.9 164.7 348.7C170.9 342.4 181.1 342.4 187.3 348.7C200.4 361.7 223.1 376 256 376H256zM409.6 235.2C416.7 240.5 418.1 250.5 412.8 257.6C382.4 298.1 321.6 298.1 291.2 257.6C285.9 250.5 287.3 240.5 294.4 235.2C301.5 229.9 311.5 231.3 316.8 238.4C334.4 261.9 369.6 261.9 387.2 238.4C392.5 231.3 402.5 229.9 409.6 235.2V235.2zM124.8 238.4C142.4 261.9 177.6 261.9 195.2 238.4C200.5 231.3 210.5 229.9 217.6 235.2C224.7 240.5 226.1 250.5 220.8 257.6C190.4 298.1 129.6 298.1 99.2 257.6C93.9 250.5 95.33 240.5 102.4 235.2C109.5 229.9 119.5 231.3 124.8 238.4zM207.2 106.9C209.1 115.3 205.4 124.4 197.1 127.2L190.7 129.3C167.1 137.2 146.8 152.7 132.1 173.4L125.3 184.9C120.4 192.2 110.5 194.2 103.1 189.3C95.77 184.4 93.79 174.5 98.69 167.1L106.3 155.7C124.1 129 150.2 109.1 180.6 98.93L186.9 96.82C195.3 94.03 204.4 98.56 207.2 106.9L207.2 106.9zM314.9 127.2C306.6 124.4 302 115.3 304.8 106.9C307.6 98.56 316.7 94.03 325.1 96.82L331.4 98.93C361.8 109.1 387.9 129 405.7 155.7L413.3 167.1C418.2 174.5 416.2 184.4 408.9 189.3C401.5 194.2 391.6 192.2 386.7 184.9L379 173.4C365.2 152.7 344.9 137.2 321.3 129.3L314.9 127.2zM512 256C512 397.4 397.4 512 256 512C114.6 512 0 397.4 0 256C0 114.6 114.6 0 256 0C397.4 0 512 114.6 512 256zM256 32C132.3 32 32 132.3 32 256C32 379.7 132.3 480 256 480C379.7 480 480 379.7 480 256C480 132.3 379.7 32 256 32z"/></svg>
